X:1
T:Title
%%score ( 1 2 ) 3
L:1/8
Q:1/4=90
M:4/4
K:Eb
V:1 treble nm="Grand Piano, Soprano"
V:2 treble 
V:3 bass nm="Choir Pad, Come Abide"
V:1
 [EG]>[EF] E>[DF] [EG]>[FA] [GB]>[EG] | E>E [Ec]>[Ec] [Ec]>[Ec] [EB]2 | %2
w: By~John~Thomas~Rees * * * * * * *||
 E>[DF] [EG]>[EG] [EG]>[EG] [Ac]>[GB] | [GB]>[EG] [DF]6 | [EG]>[EF] E>[DF] [EG]>[FA] [GB]>[EG] | %5
w: |||
 E>E [Ec]>[Ec] [Ec]>[Ec] [EB]2 | E>[EF] [EG]>[EG] [EG]>[EG] [DB]>[DA] | [DF]>[DG] E6 | z2 B6 | %9
w: ||||
 z2 e6 | [Bd]>[Ac] [GB]>[GB] [GB]>[GB] [Ac]>[GB] | (3[GB][FA][EG] [DF]6 | %12
w: |||
 [EG]>[EF] E>[DF] [EG]>[FA] [GB]>[EG] | E>E [Ec]>[Ec] [Ec]>[Ec] [EB]2 | %14
w: ||
 E>[EF] [EG]>[EG] [EG]>[EG] [DB]>[DA] | [DF]>[DG] E6- | E2 z2 z4 |] %17
w: |||
V:2
 x8 | x8 | x8 | x8 | x8 | x8 | x8 | x8 | G>A z2 G>G G2 | G>B z2 G>G G2 | x8 | x8 | x8 | x8 | x8 | %15
 x8 | x8 |] %17
V:3
 [E,B,]>[E,A,] [E,G,]>[E,A,] [E,B,]>[E,B,] [E,E]>[E,B,] | %1
 [E,G,]>[E,G,] [A,,A,]>[B,,A,] [C,A,]>[D,A,] [E,G,]2 | %2
 [E,G,]>[E,A,] [E,B,]>[E,B,] [E,B,]>[E,B,] [E,E]>[E,E] | [E,B,]>[E,B,] [B,,B,]6 | %4
 [E,B,]>[E,A,] [E,G,]>[E,A,] [E,B,]>[E,B,] [E,E]>[E,B,] | %5
 [E,G,]>[E,G,] [A,,A,]>[B,,A,] [C,A,]>[D,A,] [E,G,]2 | %6
 [E,G,]>[E,A,] [E,B,]>[E,B,] [E,B,]>[E,B,] [B,,B,]>[B,,B,] | [B,,A,]>[B,,A,] [E,G,]6 | %8
 z4 [E,E]>[E,E] [E,E]2 | z4 [E,B,]>[E,B,] [E,B,]2 | %10
 [E,E]>[E,E] [E,E]>[E,E] [E,E]>[E,E] [E,E]>[E,E] | [E,B,]>[E,B,] [B,,B,]6 | %12
 [E,B,]>[E,A,] [E,G,]>[E,A,] [E,B,]>[E,B,] [E,E]>[E,B,] | %13
 [E,G,]>[E,G,] [A,,A,]>[B,,A,] [C,A,]>[D,A,] [E,G,]2 | %14
 [E,G,]>[E,A,] [E,B,]>[E,B,] [E,B,]>[E,B,] [B,,B,]>[B,,B,] | [B,,A,]>[B,,A,] [E,G,]6- | %16
 [E,G,]2 z2 z4 |] %17

